X:3610
L:1/8
M:6/8
K:C
"^Fastish" |: c | d2 e d2 A | G3 G2 A | B2 G c2 B | G3- G2 :| A | B2 c d2 g | g2 f d2 e | 
 f2 g f2 d | c3- c2 c | d2 e d2 A | G2 F G2 A | BBG c2 B | G3- G2 ||

